src/assets/image/arrow.svg

<svg xmlns:xlink="http://www.w3.org/1999/xlink" xmlns="http://www.w3.org/2000/svg" width="182" height="182" viewBox="0 0 182 182" fill="none">
							<rect x="0.5" y="-0.5" width="181" height="181" rx="90.5" transform="matrix(1 1.74846e-07 1.74846e-07 -1 8.74228e-08 181)" fill="#1D1C1B" stroke="#FFFFFF"></rect>
							<path d="M101.52 93.2773L102.521 92.4012H101.191H73.5V89.5988H101.191H102.521L101.52 88.7227L91.4082 79.8693C90.7877 79.326 90.7877 78.4763 91.4082 77.933C92.0677 77.3557 93.1609 77.3557 93.8204 77.933L107.64 90.0319C108.26 90.5751 108.26 91.4249 107.64 91.9681L93.8204 104.067C93.1609 104.644 92.0677 104.644 91.4082 104.067C90.7877 103.524 90.7877 102.674 91.4082 102.131L101.52 93.2773Z" fill="#FFFFFF" stroke="#FFFFFF"></path>
						</svg>

<svg xmlns="http://www.w3.org/2000/svg" width="182" height="182" fill="none"><rect x=".5" y="-.5" width="181" height="181" rx="90.5" transform="matrix(1 0 0 -1 0 181)" fill="#1D1C1B" stroke="#FFF"/><path d="m101.52 93.277 1.001-.876H73.5V89.6h29.021l-1.001-.876-10.112-8.854c-.62-.543-.62-1.393 0-1.936.66-.577 1.753-.577 2.412 0l13.82 12.099c.62.543.62 1.393 0 1.936l-13.82 12.099c-.66.577-1.752.577-2.412 0-.62-.543-.62-1.393 0-1.936l10.112-8.854Z" fill="#FFF" stroke="#FFF"/></svg>
